flaticon/interaction/signs-1.svg

<svg xmlns="http://www.w3.org/2000/svg" width="32" height="32" viewBox="0 0 24 24">
    <path d="M 18.800781 16.398438 C 18.800781 14.855469 17.542969 13.601562 16 13.601562 C 14.457031 13.601562 13.199219 14.855469 13.199219 16.398438 L 13.199219 16.800781 L 11.601562 16.800781 L 11.601562 24 L 20.398438 24 L 20.398438 16.800781 L 18.800781 16.800781 Z M 14 16.398438 C 14 15.296875 14.898438 14.398438 16 14.398438 C 17.101562 14.398438 18 15.296875 18 16.398438 L 18 16.800781 L 14 16.800781 Z M 19.601562 17.601562 L 19.601562 23.199219 L 12.398438 23.199219 L 12.398438 17.601562 Z M 19.601562 17.601562"/>
    <path d="M15.601562 21.941406L15.601562 22.398438C15.601562 22.621094 15.777344 22.800781 16 22.800781 16.222656 22.800781 16.398438 22.621094 16.398438 22.398438L16.398438 21.941406C17.089844 21.765625 17.601562 21.144531 17.601562 20.398438 17.601562 19.519531 16.882812 18.800781 16 18.800781 15.117188 18.800781 14.398438 19.519531 14.398438 20.398438 14.398438 21.144531 14.910156 21.765625 15.601562 21.941406zM16 19.601562C16.441406 19.601562 16.800781 19.957031 16.800781 20.398438 16.800781 20.839844 16.441406 21.199219 16 21.199219 15.558594 21.199219 15.199219 20.839844 15.199219 20.398438 15.199219 19.957031 15.558594 19.601562 16 19.601562zM11.601562 10.410156C11.023438 10.558594 10.574219 11.015625 10.441406 11.601562L7.601562 11.601562C7.378906 11.601562 7.199219 11.777344 7.199219 12 7.199219 12.222656 7.378906 12.398438 7.601562 12.398438L10.472656 12.398438C10.667969 13.0625 11.273438 13.550781 12 13.550781 12.882812 13.550781 13.601562 12.835938 13.601562 11.953125 13.601562 11.207031 13.089844 10.585938 12.398438 10.410156L12.398438 6.351562C12.398438 6.128906 12.222656 5.953125 12 5.953125 11.777344 5.953125 11.601562 6.128906 11.601562 6.351562zM12.800781 11.953125C12.800781 12.394531 12.441406 12.75 12 12.75 11.558594 12.75 11.199219 12.394531 11.199219 11.953125 11.199219 11.511719 11.558594 11.152344 12 11.152344 12.441406 11.152344 12.800781 11.511719 12.800781 11.953125zM12 3.953125C12.222656 3.953125 12.398438 3.773438 12.398438 3.550781L12.398438 3.152344C12.398438 2.929688 12.222656 2.75 12 2.75 11.777344 2.75 11.601562 2.929688 11.601562 3.152344L11.601562 3.550781C11.601562 3.773438 11.777344 3.953125 12 3.953125zM20.800781 11.550781L20.398438 11.550781C20.179688 11.550781 20 11.730469 20 11.953125 20 12.171875 20.179688 12.351562 20.398438 12.351562L20.800781 12.351562C21.019531 12.351562 21.199219 12.171875 21.199219 11.953125 21.199219 11.730469 21.019531 11.550781 20.800781 11.550781zM3.199219 11.550781C2.980469 11.550781 2.800781 11.730469 2.800781 11.953125 2.800781 12.171875 2.980469 12.351562 3.199219 12.351562L3.601562 12.351562C3.820312 12.351562 4 12.171875 4 11.953125 4 11.730469 3.820312 11.550781 3.601562 11.550781zM18.222656 6.292969L18.503906 6.011719C18.660156 5.855469 18.660156 5.601562 18.503906 5.445312 18.347656 5.289062 18.097656 5.289062 17.941406 5.445312L17.65625 5.730469C17.5 5.886719 17.5 6.136719 17.65625 6.292969 17.734375 6.371094 17.835938 6.410156 17.941406 6.410156 18.042969 6.410156 18.144531 6.371094 18.222656 6.292969zM5.777344 17.609375L5.496094 17.890625C5.339844 18.046875 5.339844 18.300781 5.496094 18.457031 5.574219 18.535156 5.675781 18.574219 5.777344 18.574219 5.878906 18.574219 5.980469 18.535156 6.058594 18.457031L6.34375 18.175781C6.5 18.019531 6.5 17.765625 6.34375 17.609375 6.1875 17.453125 5.933594 17.453125 5.777344 17.609375zM6.34375 5.730469L6.058594 5.445312C5.902344 5.289062 5.652344 5.289062 5.496094 5.445312 5.339844 5.601562 5.339844 5.855469 5.496094 6.011719L5.777344 6.292969C5.855469 6.371094 5.957031 6.410156 6.058594 6.410156 6.164062 6.410156 6.265625 6.371094 6.34375 6.292969 6.5 6.136719 6.5 5.886719 6.34375 5.730469zM6.34375 5.730469"/>
    <path d="M 12 0 C 5.382812 0 0 5.382812 0 12 C 0 17.53125 3.742188 22.320312 9.105469 23.648438 C 9.136719 23.65625 9.167969 23.660156 9.203125 23.660156 C 9.382812 23.660156 9.542969 23.539062 9.589844 23.355469 C 9.644531 23.140625 9.511719 22.925781 9.296875 22.871094 C 4.292969 21.632812 0.800781 17.160156 0.800781 12 C 0.800781 5.824219 5.824219 0.800781 12 0.800781 C 18.175781 0.800781 23.199219 5.824219 23.199219 12 C 23.199219 13.386719 22.945312 14.746094 22.445312 16.039062 C 22.367188 16.242188 22.46875 16.476562 22.675781 16.554688 C 22.882812 16.636719 23.113281 16.53125 23.191406 16.324219 C 23.726562 14.941406 24 13.484375 24 12 C 24 5.382812 18.617188 0 12 0 Z M 12 0"/>
</svg>

<svg xmlns="http://www.w3.org/2000/svg" width="32" height="32" viewBox="0 0 24 24">
    <path d="M18.8 16.398a2.802 2.802 0 0 0-2.8-2.796 2.802 2.802 0 0 0-2.8 2.796v.403h-1.598V24h8.796v-7.2h-1.597zm-4.8 0c0-1.101.898-2 2-2 1.102 0 2 .899 2 2v.403h-4zm5.602 1.204v5.597h-7.204v-5.597zm0 0"/>
    <path d="M15.602 21.941v.457a.398.398 0 1 0 .796 0v-.457a1.592 1.592 0 0 0 1.204-1.543 1.603 1.603 0 0 0-3.203 0c0 .747.511 1.368 1.203 1.543zm.398-2.34a.799.799 0 1 1 0 1.598.799.799 0 0 1 0-1.598zm0 0M11.602 10.41a1.594 1.594 0 0 0-1.16 1.192h-2.84a.398.398 0 1 0 0 .796h2.87a1.595 1.595 0 0 0 3.13-.445c0-.746-.512-1.367-1.204-1.543V6.352A.395.395 0 0 0 12 5.953a.395.395 0 0 0-.398.399zm1.199 1.543c0 .442-.36.797-.801.797a.799.799 0 1 1 0-1.598c.441 0 .8.36.8.801zm0 0M12 3.953c.223 0 .398-.18.398-.402v-.399a.398.398 0 1 0-.796 0v.399c0 .222.175.402.398.402zm0 0M20.8 11.55h-.402a.401.401 0 0 0 0 .802h.403a.4.4 0 0 0 0-.801zm0 0M3.2 11.55a.401.401 0 0 0 0 .802h.402a.4.4 0 0 0 0-.801zm0 0M18.223 6.293l.28-.281a.4.4 0 0 0 0-.567.396.396 0 0 0-.562 0l-.285.285a.399.399 0 1 0 .566.563zm0 0M5.777 17.61l-.28.28a.4.4 0 0 0 .28.684c.102 0 .203-.039.282-.117l.285-.281a.4.4 0 0 0-.567-.567zm0 0M6.344 5.73l-.285-.285a.396.396 0 0 0-.563 0 .4.4 0 0 0 0 .567l.281.281a.399.399 0 1 0 .566-.563zm0 0"/>
    <path d="M12 0C5.383 0 0 5.383 0 12c0 5.531 3.742 10.32 9.105 11.648a.4.4 0 0 0 .191-.777A11.173 11.173 0 0 1 .802 12C.8 5.824 5.824.8 12 .8S23.2 5.825 23.2 12c0 1.387-.255 2.746-.755 4.04a.4.4 0 0 0 .746.284c.536-1.383.809-2.84.809-4.324 0-6.617-5.383-12-12-12zm0 0"/>
</svg>
